X: 1
T: Kitty Lie Over
Z: JACKB
S: https://thesession.org/tunes/948#setting32269
R: jig
M: 6/8
L: 1/8
K: Dmaj
|:AFD DFA|Add B2 A|ABA F3|GFG EFG|
AFD DFA|Add B2 A|ABA F2 E|FDD D3:|
|:fdd ede|fdd d2 g|fdd def|gfg e2 g|
fed B2A|AdF A3|ABA F2 E|FDD D3:|

